X: 1
T: Am Brunnen vor dem Tore
C: Wilheml M\"uller (1794-1827)
C: Melodie nach Franz Schubert (1797-1828)
R: waltz
M: 3/4
L: 1/8
K: F
[cA] | "F"[c3A3] [FA] [FA][FA] | [A2F2] F2 zF | "C7"[G3C3] [AF] [BG][GE] | "F"[A4F4] z[cA] |
w: Am Brun-nen vor dem To-re da steht ein Lin-den-baum. Ich
       "F"[c3A3] [FA] [FA][FA] | [A2F2] F2 zF | "C7"[G3C3] [AF] ([c/A/][B/G/])[GE] | "F"F4 zF ||
w: tr\"aumt in sei-nem Schat-ten so man-chen s\"u\s-*sen Traum. Ich
  | "C7"[G3C3] [GD] [GE][GC] | "F"[AF][BG] [c2A2] z[cA] | "Bb"[d3B3] [cA] [AF]F | "C7"[G4C4] z[GE] |
w: schnitt in sei-ne Rin-de so man-ches lie-bes Wort. Es
  | "C7"[G3C3] [GD] [GE][GC] | "F"[AF][BG] [c2A2] z[cB] | ([f2A2-] [cA])[AF] "C7"[BG][GC] | "F"[c4A4] z[cB] |
w: zog in Freud und Lei-*de zu ihm* mich im-mer fort, zu
  | "F"([f2A2-] [cA])[AF] "C7"([c/A/][B/G/])[GE] | "F"F4 z |]
w: ihm* mich im-mer fort.
%
W: Ich mu\sst auch heute wandern vorbei in tiefer Nacht
W: Da hab ich noch im Dunkel die Augen zugemacht
W: Und seine Zweige rauschten als riefen sie mir zu:
W: "Komm her zu mir, Geselle |: hier findst du deine Ruh :|
W:
W: Die kalten Winde bliesen mir grad ins Angesicht
W: Der Hut flog mir vom Kopfe ich wendete mich nicht
W: Nun bin ich manche Stunde entfernt von diesem Ort
W: Und immer h\"or ich's rauschen: |: "Du f\"andest Ruhe dort :|
